resources/svg/film.svg

<svg viewBox="0 0 1200 1200"><path d="M70.825 0v1200h1058.35V0H70.825zm53.98 72.07H254.81v98.877H124.805V72.07zm820.312 0h130.005v98.877H945.117V72.07zm-634.424 7.325h578.613v523.682H310.693V79.395zM124.805 293.628H254.81v98.877H124.805v-98.877zm820.385 0h130.005v98.877H945.19v-98.877zM124.805 515.186H254.81v98.877H124.805v-98.877zm820.385 0h130.005v98.877H945.19v-98.877zM310.693 639.697h578.613v523.682H310.693V639.697zm-185.888 97.046H254.81v98.877H124.805v-98.877zm820.385 0h130.005v98.877H945.19v-98.877zM124.805 958.301H254.81v98.877H124.805v-98.877zm820.385 0h130.005v98.877H945.19v-98.877z" fill="currentColor"/></svg>

<svg xmlns="http://www.w3.org/2000/svg" docname="film.svg" version="0.48.4 r9939" x="0px" y="0px" viewBox="0 0 1200 1200" enable-background="new 0 0 1200 1200" xml:space="preserve" fill="currentColor"><path id="path7833" connector-curvature="0" d="M70.825,0v1200h1058.35V0H70.825z M124.805,72.07H254.81v98.877H124.805 V72.07z M945.117,72.07h130.005v98.877H945.117V72.07z M310.693,79.395h578.613v523.682H310.693V79.395z M124.805,293.628H254.81 v98.877H124.805V293.628z M945.19,293.628h130.005v98.877H945.19V293.628z M124.805,515.186H254.81v98.877H124.805V515.186z M945.19,515.186h130.005v98.877H945.19V515.186z M310.693,639.697h578.613v523.682H310.693V639.697z M124.805,736.743H254.81 v98.877H124.805V736.743z M945.19,736.743h130.005v98.877H945.19V736.743z M124.805,958.301H254.81v98.877H124.805V958.301z M945.19,958.301h130.005v98.877H945.19V958.301z"/></svg>
